icons/glyphs/glyph-dice.svg

<?xml version="1.0" encoding="UTF-8" standalone="no"?><svg height="16" viewBox="0 0 4.2333332 4.2333332" width="16" xmlns="http://www.w3.org/2000/svg"><sodipodi:namedview/><metadata><rdf:RDF><cc:Work><dc:format>image/svg+xml</dc:format><dc:type/><dc:title/></cc:Work></rdf:RDF></metadata><path d="m1.9257812 0c-1.06735973 0-1.9257812.85842147-1.9257812 1.9257812v12.1484378c0 1.06736.85842147 1.925781 1.9257812 1.925781h12.1484378c1.06736 0 1.925781-.858421 1.925781-1.925781v-12.1484378c0-1.06735973-.858421-1.9257812-1.925781-1.9257812zm2.15625 2.71875a1.4007813 1.4007813 0 0 1 1.4003907 1.4003906 1.4007813 1.4007813 0 0 1 -1.4003907 1.4003906 1.4007813 1.4007813 0 0 1 -1.4003906-1.4003906 1.4007813 1.4007813 0 0 1 1.4003906-1.4003906zm8.2441408 0a1.4007813 1.4007813 0 0 1 1.40039 1.4003906 1.4007813 1.4007813 0 0 1 -1.40039 1.4003906 1.4007813 1.4007813 0 0 1 -1.400391-1.4003906 1.4007813 1.4007813 0 0 1 1.400391-1.4003906zm-4.123047 4.1210938a1.4007813 1.4007813 0 0 1 1.4023438 1.4003906 1.4007813 1.4007813 0 0 1 -1.4023438 1.4023437 1.4007813 1.4007813 0 0 1 -1.4003906-1.4023437 1.4007813 1.4007813 0 0 1 1.4003906-1.4003906zm-4.1210938 4.1230472a1.4007813 1.4007813 0 0 1 1.4003907 1.40039 1.4007813 1.4007813 0 0 1 -1.4003907 1.400391 1.4007813 1.4007813 0 0 1 -1.4003906-1.400391 1.4007813 1.4007813 0 0 1 1.4003906-1.40039zm8.2441408 0a1.4007813 1.4007813 0 0 1 1.40039 1.40039 1.4007813 1.4007813 0 0 1 -1.40039 1.400391 1.4007813 1.4007813 0 0 1 -1.400391-1.400391 1.4007813 1.4007813 0 0 1 1.400391-1.40039z" fill="#d0d0d0" stroke-linecap="round" stroke-miterlimit="26.700001" stroke-width="2" transform="scale(.26458333)"/></svg>

<?xml version="1.0" encoding="UTF-8" standalone="no"?>
<!-- Created with Inkscape (http://www.inkscape.org/) -->

<svg
   xmlns:dc="http://purl.org/dc/elements/1.1/"
   xmlns:cc="http://creativecommons.org/ns#"
   xmlns:rdf="http://www.w3.org/1999/02/22-rdf-syntax-ns#"
   xmlns:svg="http://www.w3.org/2000/svg"
   xmlns="http://www.w3.org/2000/svg"
   xmlns:sodipodi="http://sodipodi.sourceforge.net/DTD/sodipodi-0.dtd"
   xmlns:inkscape="http://www.inkscape.org/namespaces/inkscape"
   width="16"
   height="16"
   viewBox="0 0 4.2333332 4.2333332"
   version="1.1"
   id="svg8"
   inkscape:version="0.92+devel (b8837397f6, 2017-07-27, custom)"
   sodipodi:docname="glyph-dice.svg">
  <defs
     id="defs2" />
  <sodipodi:namedview
     id="base"
     pagecolor="#002466"
     bordercolor="#ffffff"
     borderopacity="0.38039216"
     inkscape:pageopacity="1"
     inkscape:pageshadow="2"
     inkscape:zoom="36.415999"
     inkscape:cx="10.094581"
     inkscape:cy="7.9162778"
     inkscape:document-units="px"
     inkscape:current-layer="svg8"
     inkscape:document-rotation="0"
     showgrid="false"
     inkscape:showpageshadow="false"
     borderlayer="true"
     inkscape:window-width="1920"
     inkscape:window-height="1051"
     inkscape:window-x="0"
     inkscape:window-y="0"
     inkscape:window-maximized="1"
     units="px"
     inkscape:snap-page="true"
     inkscape:snap-grids="false"
     inkscape:snap-to-guides="false"
     inkscape:snap-object-midpoints="true"
     inkscape:snap-center="true" />
  <metadata
     id="metadata5">
    <rdf:RDF>
      <cc:Work
         rdf:about="">
        <dc:format>image/svg+xml</dc:format>
        <dc:type
           rdf:resource="http://purl.org/dc/dcmitype/StillImage" />
        <dc:title></dc:title>
      </cc:Work>
    </rdf:RDF>
  </metadata>
  <path
     style="font-variation-settings:normal;vector-effect:none;fill:#d0d0d0;stroke-width:2;stroke-linecap:round;stroke-miterlimit:26.70000076"
     d="M 1.9257812 0 C 0.85842147 2.9605947e-16 0 0.85842147 0 1.9257812 L 0 14.074219 C 2.9605947e-16 15.141579 0.85842147 16 1.9257812 16 L 14.074219 16 C 15.141579 16 16 15.141579 16 14.074219 L 16 1.9257812 C 16 0.85842147 15.141579 0 14.074219 0 L 1.9257812 0 z M 4.0820312 2.71875 A 1.4007813 1.4007813 0 0 1 5.4824219 4.1191406 A 1.4007813 1.4007813 0 0 1 4.0820312 5.5195312 A 1.4007813 1.4007813 0 0 1 2.6816406 4.1191406 A 1.4007813 1.4007813 0 0 1 4.0820312 2.71875 z M 12.326172 2.71875 A 1.4007813 1.4007813 0 0 1 13.726562 4.1191406 A 1.4007813 1.4007813 0 0 1 12.326172 5.5195312 A 1.4007813 1.4007813 0 0 1 10.925781 4.1191406 A 1.4007813 1.4007813 0 0 1 12.326172 2.71875 z M 8.203125 6.8398438 A 1.4007813 1.4007813 0 0 1 9.6054688 8.2402344 A 1.4007813 1.4007813 0 0 1 8.203125 9.6425781 A 1.4007813 1.4007813 0 0 1 6.8027344 8.2402344 A 1.4007813 1.4007813 0 0 1 8.203125 6.8398438 z M 4.0820312 10.962891 A 1.4007813 1.4007813 0 0 1 5.4824219 12.363281 A 1.4007813 1.4007813 0 0 1 4.0820312 13.763672 A 1.4007813 1.4007813 0 0 1 2.6816406 12.363281 A 1.4007813 1.4007813 0 0 1 4.0820312 10.962891 z M 12.326172 10.962891 A 1.4007813 1.4007813 0 0 1 13.726562 12.363281 A 1.4007813 1.4007813 0 0 1 12.326172 13.763672 A 1.4007813 1.4007813 0 0 1 10.925781 12.363281 A 1.4007813 1.4007813 0 0 1 12.326172 10.962891 z "
     transform="scale(0.26458333)"
     id="rect811" />
</svg>
